svgs/dawn.svg

<?xml version="1.0" encoding="UTF-8" standalone="no"?>
<svg
   width="192"
   height="192"
   viewBox="0 0 192 192"
   fill="none"
   version="1.1"
   id="svg14"
   sodipodi:docname="dawn.svg"
   inkscape:version="1.1.2 (0a00cf5339, 2022-02-04, custom)"
   xmlns:inkscape="http://www.inkscape.org/namespaces/inkscape"
   xmlns:sodipodi="http://sodipodi.sourceforge.net/DTD/sodipodi-0.dtd"
   xmlns="http://www.w3.org/2000/svg"
   xmlns:svg="http://www.w3.org/2000/svg">
  <defs
     id="defs18" />
  <sodipodi:namedview
     id="namedview16"
     pagecolor="#ffffff"
     bordercolor="#666666"
     borderopacity="1.0"
     inkscape:pageshadow="2"
     inkscape:pageopacity="0.0"
     inkscape:pagecheckerboard="0"
     showgrid="false"
     inkscape:zoom="2.2734375"
     inkscape:cx="-21.553265"
     inkscape:cy="28.591066"
     inkscape:window-width="2516"
     inkscape:window-height="1396"
     inkscape:window-x="22"
     inkscape:window-y="22"
     inkscape:window-maximized="0"
     inkscape:current-layer="svg14" />
  <path
     d="m 33.067,111.226 5.8259,1.435 c 0.7526,-3.056 -0.9836,-6.174 -3.9777,-7.143 z m 17.5479,-25.0682 -4.7278,3.6943 c 2.0157,2.5797 5.7273,3.0673 8.341,1.0958 z m 90.7701,0 -3.613,4.7901 c 2.614,1.9715 6.325,1.4839 8.341,-1.0958 z m 17.548,25.0682 -1.848,-5.708 c -2.994,0.969 -4.731,4.087 -3.978,7.143 z M 96,174.001 c 18.846,0 36.138,-5.722 48.855,-15.259 C 157.573,149.203 166,135.568 166,120.001 h -12 c 0,10.943 -5.9,21.307 -16.345,29.141 C 127.208,156.977 112.5,162.001 96,162.001 Z m -70,-54 c 0,15.567 8.4269,29.202 21.1452,38.741 12.7164,9.537 30.009,15.259 48.8548,15.259 v -12 c -16.5004,0 -31.2078,-5.024 -41.6548,-12.859 C 43.9,141.308 38,130.944 38,120.001 Z m 1.2411,-10.21 C 26.4268,113.097 26,116.512 26,120.001 h 12 c 0,-2.505 0.3057,-4.956 0.8929,-7.34 z M 16,96.001 c 0,9.793 6.3939,18.076 15.2188,20.933 l 3.6964,-11.416 C 30.8949,104.216 28,100.439 28,96.001 Z m 22,-22 c -12.1503,0 -22,9.8497 -22,22 h 12 c 0,-5.5229 4.4772,-10 10,-10 z m 17.3427,8.4626 C 51.3262,77.3234 45.0495,74.001 38,74.001 v 12 c 3.1997,0 6.0469,1.4961 7.8871,3.8511 z M 96,66.001 c -18.9161,0 -36.2683,5.7644 -48.9983,15.3668 l 7.2264,9.5801 C 64.6818,83.0626 79.4371,78.001 96,78.001 Z m 48.998,15.3668 C 132.268,71.7654 114.916,66.001 96,66.001 v 12 c 16.563,0 31.318,5.0616 41.772,12.9469 z m 1.115,8.4843 c 1.84,-2.355 4.687,-3.8511 7.887,-3.8511 v -12 c -7.05,0 -13.326,3.3224 -17.343,8.4626 z M 154,86.001 c 5.523,0 10,4.4771 10,10 h 12 c 0,-12.1503 -9.85,-22 -22,-22 z m 10,10 c 0,4.438 -2.895,8.215 -6.915,9.517 l 3.696,11.416 C 169.606,114.077 176,105.794 176,96.001 Z m 2,24 c 0,-3.489 -0.427,-6.904 -1.241,-10.21 l -11.652,2.87 c 0.587,2.384 0.893,4.835 0.893,7.34 z"
     fill="#000000"
     id="path2"
     sodipodi:nodetypes="cccccccccccccccccccccccccccccccccccccccccccccccccccccccccccccccccccccccccccccccc" />
  <g
     id="g3494"
     transform="matrix(0.90746196,0,0,0.90746196,9.4985921,8.8307941)">
    <rect
       style="fill:#000000;fill-opacity:1;stroke:#000000;stroke-width:0;stroke-miterlimit:4;stroke-dasharray:none;stroke-opacity:1"
       id="rect881"
       width="93.807724"
       height="13.328"
       x="48.873989"
       y="95.428802"
       ry="4.0171366"
       rx="16.050631" />
    <rect
       style="fill:#000000;fill-opacity:1;stroke:#000000;stroke-width:0;stroke-miterlimit:4;stroke-dasharray:none;stroke-opacity:1"
       id="rect881-3"
       width="43.205616"
       height="29.698486"
       x="46.719543"
       y="95.428802"
       ry="7.5780625"
       rx="7.2795568" />
    <rect
       style="fill:#000000;fill-opacity:1;stroke:#000000;stroke-width:0;stroke-miterlimit:4;stroke-dasharray:none;stroke-opacity:1"
       id="rect881-3-5"
       width="43.205616"
       height="29.698486"
       x="100.71954"
       y="95.428802"
       ry="7.5780625"
       rx="7.2795568" />
  </g>
  <g
     id="g2209"
     transform="matrix(0.70670146,-0.25812911,0.36787749,0.44755396,6.7553196,70.272257)" />
  <path
     d="m 103.1842,68.820257 c 2.68053,-2.142767 5.17767,-4.4511 6.97427,-6.807324 1.38335,-1.814374 2.7503,-3.497392 1.51061,-5.150306 -0.48985,-0.654049 -1.20275,-0.8634 -1.98131,-0.937289 -1.09601,-0.105361 -2.29465,0.03421 -3.56169,0.273661 -4.36079,0.820984 -9.281222,2.809133 -13.926629,4.199333 -3.838099,1.149376 -7.533896,1.907418 -10.74531,1.803427 -4.42784,-0.143671 -8.133213,-1.739117 -10.83425,-5.339132 -4.252697,-5.671629 -3.185418,-12.127298 1.562605,-18.354461 1.856793,-2.435586 9.173283,-8.645829 11.867479,-10.932268 1.176008,-7.303381 22.124785,18.310445 9.963624,7.217391 -1.823952,1.600918 -11.834256,8.6572 -13.125938,10.351163 -1.383357,1.814374 -2.750295,3.497392 -1.510609,5.150305 0.489853,0.65405 1.202741,0.863402 1.981306,0.93729 1.096015,0.105359 2.294652,-0.03421 3.563071,-0.27366 4.359424,-0.820986 9.279857,-2.809135 13.925249,-4.199333 3.838102,-1.149377 7.533902,-1.90742 10.745312,-1.803428 4.42921,0.143672 8.13458,1.739117 10.83425,5.339131 4.25406,5.671631 3.18542,12.127299 -1.56261,18.354462 -0.42007,0.550058 -0.87023,1.098751 -1.34915,1.647441 32.25372,5.111993 -69.882136,-1.666597 -21.969522,-1.666597 2.62714,0 5.173572,0.06567 7.639242,0.190194 z"
     style="fill:#000000;stroke-width:1.36831"
     id="path1417"
     sodipodi:nodetypes="ccccccccccccccccccccsc" />
  <circle
     cx="97.343773"
     cy="28.033625"
     stroke="#000000"
     stroke-width="9.69072"
     id="circle10"
     r="9.6907215" />
</svg>

<?xml version="1.0" encoding="UTF-8" standalone="no"?>
<svg
   width="192"
   height="192"
   viewBox="0 0 192 192"
   fill="none"
   version="1.1"
   id="svg14"
   sodipodi:docname="dawn.svg"
   inkscape:version="1.1.2 (0a00cf5339, 2022-02-04, custom)"
   xmlns:inkscape="http://www.inkscape.org/namespaces/inkscape"
   xmlns:sodipodi="http://sodipodi.sourceforge.net/DTD/sodipodi-0.dtd"
   xmlns="http://www.w3.org/2000/svg"
   xmlns:svg="http://www.w3.org/2000/svg">
  <defs
     id="defs18" />
  <sodipodi:namedview
     id="namedview16"
     pagecolor="#ffffff"
     bordercolor="#666666"
     borderopacity="1.0"
     inkscape:pageshadow="2"
     inkscape:pageopacity="0.0"
     inkscape:pagecheckerboard="0"
     showgrid="false"
     inkscape:zoom="3.2151261"
     inkscape:cx="143.0737"
     inkscape:cy="80.245685"
     inkscape:window-width="2516"
     inkscape:window-height="1396"
     inkscape:window-x="0"
     inkscape:window-y="0"
     inkscape:window-maximized="0"
     inkscape:current-layer="svg14" />
  <path
     d="M33.067 111.226L38.8929 112.661C39.6455 109.605 37.9093 106.487 34.9152 105.518L33.067 111.226ZM50.6149 86.1578L45.8871 89.8521C47.9028 92.4318 51.6144 92.9194 54.2281 90.9479L50.6149 86.1578ZM141.385 86.1578L137.772 90.9479C140.386 92.9194 144.097 92.4318 146.113 89.8521L141.385 86.1578ZM158.933 111.226L157.085 105.518C154.091 106.487 152.354 109.605 153.107 112.661L158.933 111.226ZM96 174.001C114.846 174.001 132.138 168.279 144.855 158.742C157.573 149.203 166 135.568 166 120.001H154C154 130.944 148.1 141.308 137.655 149.142C127.208 156.977 112.5 162.001 96 162.001V174.001ZM26 120.001C26 135.568 34.4269 149.203 47.1452 158.742C59.8616 168.279 77.1542 174.001 96 174.001V162.001C79.4996 162.001 64.7922 156.977 54.3452 149.142C43.9 141.308 38 130.944 38 120.001H26ZM27.2411 109.791C26.4268 113.097 26 116.512 26 120.001H38C38 117.496 38.3057 115.045 38.8929 112.661L27.2411 109.791ZM16 96.001C16 105.794 22.3939 114.077 31.2188 116.934L34.9152 105.518C30.8949 104.216 28 100.439 28 96.001H16ZM38 74.001C25.8497 74.001 16 83.8507 16 96.001H28C28 90.4781 32.4772 86.001 38 86.001V74.001ZM55.3427 82.4636C51.3262 77.3234 45.0495 74.001 38 74.001V86.001C41.1997 86.001 44.0469 87.4971 45.8871 89.8521L55.3427 82.4636ZM96 66.001C77.0839 66.001 59.7317 71.7654 47.0017 81.3678L54.2281 90.9479C64.6818 83.0626 79.4371 78.001 96 78.001V66.001ZM144.998 81.3678C132.268 71.7654 114.916 66.001 96 66.001V78.001C112.563 78.001 127.318 83.0626 137.772 90.9479L144.998 81.3678ZM146.113 89.8521C147.953 87.4971 150.8 86.001 154 86.001V74.001C146.95 74.001 140.674 77.3234 136.657 82.4636L146.113 89.8521ZM154 86.001C159.523 86.001 164 90.4781 164 96.001H176C176 83.8507 166.15 74.001 154 74.001V86.001ZM164 96.001C164 100.439 161.105 104.216 157.085 105.518L160.781 116.934C169.606 114.077 176 105.794 176 96.001H164ZM166 120.001C166 116.512 165.573 113.097 164.759 109.791L153.107 112.661C153.694 115.045 154 117.496 154 120.001H166Z"
     fill="black"
     id="path2" />
  <circle
     cx="146"
     cy="36.001"
     r="12"
     stroke="black"
     stroke-width="12"
     id="circle10" />
  <path
     fill-rule="evenodd"
     clip-rule="evenodd"
     d="M107.177 22.1176C103.987 21.4797 100.87 23.4995 100.149 26.6713L90.1492 70.6713C89.4148 73.9026 91.4389 77.1175 94.6702 77.8519C97.9015 78.5863 101.116 76.5621 101.851 73.3308L110.555 35.031L134.629 39.8457C134.221 38.6387 134 37.3457 134 36.001C134 32.9653 135.127 30.1928 136.986 28.0794L107.177 22.1176Z"
     fill="black"
     id="path12" />
  <g
     id="g3494"
     transform="matrix(0.90746196,0,0,0.90746196,9.4985921,8.8307941)">
    <rect
       style="fill:#000000;fill-opacity:1;stroke:#000000;stroke-width:0;stroke-miterlimit:4;stroke-dasharray:none;stroke-opacity:1"
       id="rect881"
       width="93.807724"
       height="13.328"
       x="48.873989"
       y="95.428802"
       ry="4.0171366"
       rx="16.050631" />
    <rect
       style="fill:#000000;fill-opacity:1;stroke:#000000;stroke-width:0;stroke-miterlimit:4;stroke-dasharray:none;stroke-opacity:1"
       id="rect881-3"
       width="43.205616"
       height="29.698486"
       x="46.719543"
       y="95.428802"
       ry="7.5780625"
       rx="7.2795568" />
    <rect
       style="fill:#000000;fill-opacity:1;stroke:#000000;stroke-width:0;stroke-miterlimit:4;stroke-dasharray:none;stroke-opacity:1"
       id="rect881-3-5"
       width="43.205616"
       height="29.698486"
       x="100.71954"
       y="95.428802"
       ry="7.5780625"
       rx="7.2795568" />
  </g>
</svg>
